logo/zube.svg

<?xml version="1.0" encoding="UTF-8" standalone="no"?>
<svg width="256px" height="178px" viewBox="0 0 256 178" version="1.1" xmlns="http://www.w3.org/2000/svg" xmlns:xlink="http://www.w3.org/1999/xlink" preserveAspectRatio="xMidYMid">
    <g>
        <path d="M5.10597431e-08,63.22837 L119.833448,126.457752 L119.833448,177.201696 L5.10597431e-08,113.971145 L5.10597431e-08,63.22837 Z M119.833904,1.42108547e-14 L8.99445476,58.4829443 L57.0800284,83.8548476 L119.833904,50.7438069 L119.833904,1.42108547e-14 Z M136.167451,0 L136.167451,50.7438069 L207.914378,88.6005284 L136.167451,126.457251 L136.167451,177.201056 L256,113.971507 L256,63.2283663 L136.167451,0 Z" fill="#0D83DD"></path>
    </g>
</svg>

<svg viewBox="0 0 256 178" xmlns="http://www.w3.org/2000/svg"><path fill="#0D83DD" d="M0 63.22l119.83 63.22v50.74L-.01 113.94V63.19ZM119.83-.01L8.99 58.47l48.08 25.37 62.75-33.12V-.03Zm16.33-.001v50.74l71.74 37.85 -71.75 37.85v50.74l119.83-63.23V63.18L136.14-.05Z"/></svg>
